svg/600/outlined/wb_twilight.svg

<svg xmlns="http://www.w3.org/2000/svg" width="48" height="48" viewBox="0 -960 960 960"><path d="m740.001-562.435-55.566-57.566 99.566-97.566 55.566 55.566-99.566 99.566ZM70.391-147.39v-79.219h819.218v79.219H70.391Zm370-536.001v-139.784h79.218v139.784h-79.218ZM219.999-563.435l-98.566-100.566 55.566-55.566L278.13-619.001l-58.131 55.566Zm59.306 177.783h401.39q-19.565-66.478-74.174-107.587Q551.913-534.348 480-534.348q-71.913 0-126.521 41.109-54.609 41.109-74.174 107.587Zm-88.914 75.261q0-123.783 83.761-211.5Q357.913-609.609 480-609.609q122.087 0 205.848 87.718 83.761 87.717 83.761 211.5H190.391ZM480-385.652Z"/></svg>

<svg xmlns="http://www.w3.org/2000/svg" width="48" height="48" viewBox="0 -960 960 960"><path d="M740-562.43 684.43-620 784-717.57 839.57-662 740-562.43ZM70.39-147.39v-79.22h819.22v79.22H70.39Zm370-536v-139.79h79.22v139.79h-79.22ZM220-563.43 121.43-664 177-719.57 278.13-619 220-563.43Zm59.3 177.78h401.4q-19.57-66.48-74.18-107.59-54.61-41.11-126.52-41.11t-126.52 41.11q-54.61 41.11-74.18 107.59Zm-88.91 75.26q0-123.78 83.76-211.5T480-609.61q122.09 0 205.85 87.72 83.76 87.72 83.76 211.5H190.39ZM480-385.65Z"/></svg>
